X:1
T:Title
%%score { ( 1 3 ) | ( 2 4 ) }
L:1/8
M:4/4
K:D
V:1 treble nm="Grand Piano"
V:3 treble 
V:2 bass 
V:4 bass 
V:1
 z4 z2[Q:1/4=100] D2 | F3 F G2 G2 | B3 B A2 F2 | [DA]3 [A,DF][K:bass] [F,D]2 [A,CE]2 | %4
 [A,DF]6 [^A,EF]2 | [B,DF]3 [B,DF] [B,FB]2 [B,FA]2 | [B,EA]3 [B,E^G] [B,EG]2 [A,EA]2 | c3 c c2 B2 | %8
 [CA]6 [CA]2 | A3 B =c2 F2 | G3 A B2 A2 | d3 d c2 [Ge]2 | G2 z2 z4 | F3 F G2 ^G2 | B3 B A2 [Ed]2 | %15
 [Fd]3 [DF] [CF]2[K:bass] [G,CE]2 |[M:7/4] [F,D]6 z2 z2 z4 |[M:4/4][K:treble] [B,DG]8 | [A,DF]8 |] %19
V:2
 z4 z2 [D,F,]2 | [D,A,D]3 [D,A,D] [E,A,C]2 [E,A,C]2 | [=F,^G,D]3 [F,G,D] [^F,A,D]2 [D,A,D]2 | %3
 [A,,F,]3 A,, A,,2 A,,2 | D,6 C,2 | B,,3 B,, D,2 D,2 | E,3 E, E,D, C,2 | %7
 [E,A,E]3 [E,A,E] [E,^G,E]2 [E,G,D]2 | [A,,A,]6 [A,,G,]2 | [D,F,D]3 [D,G,D] [D,A,D]2 [D,=CD]2 | %10
 [E,B,D]3 [F,A,D] [G,D]2 [E,G,C]2 | [D,F,D]3 [F,A,D] [A,E]2 [A,,A,]2 | z2 F2 C,2 A,,2 | %13
 [D,A,D]3 [D,A,D] [E,A,C]2 [=F,B,D]2 | [=F,^G,D]3 [F,G,D] [^F,A,D]2 [B,,G,]2 | %15
 [A,,A,]3 [A,,A,] [A,,A,]2 A,,2 |[M:7/4] D,6 z2 z2 z4 |[M:4/4] G,,8 | D,8 |] %19
V:3
 x8 | x8 | x8 | x4[K:bass] x4 | x8 | x8 | x8 | x8 | x8 | x8 | x8 | x8 | [A,A]4- [A,EA]2 [A,CG]2 | %13
 x8 | x8 | x6[K:bass] x2 |[M:7/4] x14 |[M:4/4][K:treble] x8 | x8 |] %19
V:4
 x8 | x8 | x8 | x8 | x8 | x8 | x8 | x8 | x8 | x8 | x8 | x8 | D,4 z4 | x8 | x8 | x8 |[M:7/4] x14 | %17
[M:4/4] x8 | x8 |] %19

